!!!COM: Palestrina, Giovanni Perluigi da
!!!OPR: Missa Assumpta est Maria
!!!OTL: Agnus I
**kern	**kern	**kern	**kern	**kern	**kern
*Ibass	*Itenor	*Itenor	*Icalto	*Icant	*Icant
!Bassus	!Tenor 2	!Tenor 1	!Altus	!Cantus 2	!Cantus 1
*clefF4	*clefGv2	*clefGv2	*clefG2	*clefG2	*clefG2
*k[]	*k[]	*k[]	*k[]	*k[]	*k[]
*G:mix	*G:mix	*G:mix	*G:mix	*G:mix	*G:mix
*M4/2	*M4/2	*M4/2	*M4/2	*M4/2	*M4/2
=1	=1	=1	=1	=1	=1
0G	0B	0r	0d	0r	0g
=2	=2	=2	=2	=2	=2
1E	1e	0r	2.g	0r	1b
.	.	.	4f	.	.
1A	[1c	.	2e	.	1cc
.	.	.	2a	.	.
=3	=3	=3	=3	=3	=3
0G	2c]	0g	0d	1r	1dd
.	4B	.	.	.	.
.	4A	.	.	.	.
.	2B	.	.	1g	2r
.	2G	.	.	.	2dd
=4	=4	=4	=4	=4	=4
0r	1g	1e	2r	1b	2ee
.	.	.	2g	.	1gg
.	1r	1a	2a	1cc	.
.	.	.	[2cc	.	2ff#
=5	=5	=5	=5	=5	=5
0G	1r	0g	2cc]	1dd	2.gg
.	.	.	4b	.	.
.	.	.	4a	.	8ff
.	.	.	.	.	8ee
.	1G	.	2.b	2r	1dd
.	.	.	.	2dd	.
.	.	.	4a	.	.
=6	=6	=6	=6	=6	=6
1E	1B	0r	2.g	2ee	2r
.	.	.	.	1gg	2g
.	.	.	4f	.	.
1A	1c	.	2e	.	2a
.	.	.	2c	2ff#	[2cc
=7	=7	=7	=7	=7	=7
1G	1d	1r	2r	2.gg	2cc]
.	.	.	1g	.	2b
.	.	.	.	4ff	.
1r	1r	[1c	.	2.ee	2.cc
.	.	.	2e	.	.
.	.	.	.	4dd	4dd
=8	=8	=8	=8	=8	=8
0r	1c	1c]	4a	2cc	1ee
.	.	.	4g	.	.
.	.	.	2.cc	2g	.
.	1e	1A	.	2a	2r
.	.	.	4b	.	.
.	.	.	[2a	[2cc	2cc
=9	=9	=9	=9	=9	=9
1r	1f	1d	2a]	2cc]	2dd
.	.	.	2d	2b	2ff
[1C	1g	[1c	1r	2cc	2ee
.	.	.	.	[2ee	4cc
.	.	.	.	.	4dd
=10	=10	=10	=10	=10	=10
1C]	2.e	1c]	1g	4ee]	4ee
.	.	.	.	4dd	4ff
.	.	.	.	1cc	2.gg
.	4f	.	.	.	.
1E	2g	1G	1e	.	.
.	.	.	.	.	4ff
.	2g	.	.	2b	2ee
=11	=11	=11	=11	=11	=11
1F	2.f	1A	1a	1a	4dd
.	.	.	.	.	4cc
.	.	.	.	.	1cc
.	4e	.	.	.	.
1G	1d	1B	2.g	1dd	.
.	.	.	.	.	2b
.	.	.	4f	.	.
=12	=12	=12	=12	=12	=12
0C	0c	1G	1e	1ee	1cc
.	.	2r	2r	2r	2r
.	.	2c	2g	2cc	2ee
=13	=13	=13	=13	=13	=13
0r	0r	1c	1g	1cc	1ee
.	.	2G	2g	2b	2dd
.	.	2d	2f#	2a	2dd
=14	=14	=14	=14	=14	=14
0r	0r	2c	2g	2cc	2ee
.	.	2B	2g	2dd	2dd
.	.	2.c	4g	[1ee	[1cc
.	.	.	4f	.	.
.	.	.	4e	.	.
.	.	4d	4d	.	.
=15	=15	=15	=15	=15	=15
0r	0r	4e	1c	1ee]	2cc]
.	.	4f	.	.	.
.	.	1g	.	.	2b
.	.	.	1d	[1dd	1a
.	.	2f#	.	.	.
=16	=16	=16	=16	=16	=16
1G	2r	1g	2r	2dd]	2.b
.	2d	.	2g	2b	.
.	.	.	.	.	4cc
1G	1d	1r	1g	1b	[1dd
=17	=17	=17	=17	=17	=17
2D	2d	0r	2f#	2a	1dd]
2G	2d	.	2g	2b	.
2F	2f	.	2a	[1cc	1r
2E	2g	.	2g	.	.
=18	=18	=18	=18	=18	=18
2.F	2.a	0r	4f	1cc]	0r
.	.	.	4g	.	.
.	.	.	4a	.	.
4G	4g	.	4b-	.	.
4A	2f	.	1a	1cc	.
4B	.	.	.	.	.
[2c	2e	.	.	.	.
=19	=19	=19	=19	=19	=19
2c]	1d	1G	2.g	1dd	1r
2B	.	.	.	.	.
.	.	.	4f	.	.
2c	2c	[1g	1e	1ee	2r
2c	2e	.	.	.	2cc
=20	=20	=20	=20	=20	=20
1c	1e	1g]	1r	1r	1cc
[1G	1d	2.g	2r	2r	2.b
.	.	.	2g	2b	.
.	.	8f	.	.	4cc
.	.	8e	.	.	.
=21	=21	=21	=21	=21	=21
1G]	2G	1d	1g	1b	1.dd
.	2g	.	.	.	.
1r	2f#	1r	2d	2a	.
.	2g	.	2g	2b	2dd
=22	=22	=22	=22	=22	=22
0r	2a	0r	2f	2cc	2ff
.	2g	.	2e	2cc	2gg
.	[1a	.	2.f	4cc	1ff
.	.	.	.	4b	.
.	.	.	.	4a	.
.	.	.	4g	4b	.
=23	=23	=23	=23	=23	=23
0r	1a]	0r	4a	4cc	2.ee
.	.	.	4b	4dd	.
.	.	.	1cc	4ee	.
.	.	.	.	4ff	8dd
.	.	.	.	.	8cc
.	1g	.	.	1gg	1dd
.	.	.	2b	.	.
=24	=24	=24	=24	=24	=24
2r	0r	2r	2cc	2ee	2r
1c	.	1e	1g	1cc	1ee
2c	.	2e	2g	2cc	2ee
=25	=25	=25	=25	=25	=25
1c	0r	1c	1g	1cc	1ee
1G	.	1d	[1g	1b	2dd
.	.	.	.	.	[2gg
=26	=26	=26	=26	=26	=26
2.c	2r	1e	1g]	1cc	4gg]
.	.	.	.	.	4ff
.	1c	.	.	.	4ee
4B	.	.	.	.	4dd
4A	.	2e	1a	1cc	4cc
4G	.	.	.	.	8dd
.	.	.	.	.	8ee
4F	2c	[2A	.	.	[2ff
4E	.	.	.	.	.
=27	=27	=27	=27	=27	=27
2D	2d	2A]	[0a	0r	2ff]
2C#	2e	2A	.	.	1ee
1D	1f	2A	.	.	.
.	.	[2d	.	.	2dd
=28	=28	=28	=28	=28	=28
1A	1e	2d]	1a]	1r	1ee
.	.	2c#	.	.	.
1r	[1f#	2d	1r	[1a	2r
.	.	[2d	.	.	[2dd
=29	=29	=29	=29	=29	=29
0r	2f#]	2d]	0r	2a]	2dd]
.	2f#	2d	.	2a	2dd
.	1f#	1d	.	1a	1dd
=30	=30	=30	=30	=30	=30
0r	1g	1G	0r	2b	2dd
.	.	.	.	2.dd	2.b
.	2r	2.g	.	.	.
.	.	.	.	4cc	4cc
.	[2g	.	.	4b	2dd
.	.	4f	.	4a	.
=31	=31	=31	=31	=31	=31
0r	4g]	4e	0r	1g	1ee
.	4f	4d	.	.	.
.	4e	4c	.	.	.
.	4d	4B	.	.	.
.	2.e	2A	.	2a	2cc
.	.	2G#	.	2b	2b
.	4d	.	.	.	.
=32	=32	=32	=32	=32	=32
0r	4c	1A	0r	1cc	2ee
.	4A	.	.	.	.
.	1a	.	.	.	2ee
.	.	1e	.	1b	1ee
.	2g#	.	.	.	.
=33	=33	=33	=33	=33	=33
2r	2a	2r	2r	2a	2cc
1F	1f	1A	1a	1ff	1cc
2F	2f	2A	2a	2ff	2cc
=34	=34	=34	=34	=34	=34
1F	2f	1.c	1a	1ff	0cc
.	4c	.	.	.	.
.	4d	.	.	.	.
1C	4e	.	2g	1ee	.
.	4f	.	.	.	.
.	[2g	2e	[2cc	.	.
=35	=35	=35	=35	=35	=35
2.G	2g]	2d	4cc]	2r	1dd
.	.	.	8b	.	.
.	.	.	8a	.	.
.	2d	2G	2b	2.gg	.
4F	.	.	.	.	.
4E	2e	2r	1g	.	2r
4D	.	.	.	4ff	.
4C	[2e	[2c	.	4ee	[2gg
4BB	.	.	.	4dd	.
=36	=36	=36	=36	=36	=36
0C	2e]	2c]	2r	4ee	4gg]
.	.	.	.	4dd	4ff
.	2e	2c	1g	4cc	4ee
.	.	.	.	4b	4dd
.	2g	1c	.	1cc	1ee
.	2G	.	2g	.	.
=37	=37	=37	=37	=37	=37
0G	2.B	2.d	2g	2.b	2dd
.	.	.	1d	.	4g
.	4c	4c	.	4a	4a
.	[1d	1B	.	1g	4b
.	.	.	.	.	4a
.	.	.	[2g	.	4b
.	.	.	.	.	4cc
=38	=38	=38	=38	=38	=38
0D	0d]	0A	2g]	0a	0dd
.	.	.	4f#	.	.
.	.	.	4e	.	.
.	.	.	1f#	.	.
=39	=39	=39	=39	=39	=39
0G	0d	0G	0g	0b	0dd
==	==	==	==	==	==
*-	*-	*-	*-	*-	*-
!!!CDT: 1525/^1526/-1594/2/2
!!!OCY: Italia
!!!AGN: Mass (Parody)
!!!AST: renaissance, vocal
!!!ASW: Motet (Palestrina)
!!!PWK: Masses, Book 9
!!!RNB: Cadence finals: C
!!!YOR: Le Opere Complete, v. 25, p. 209
!!!YOO: Rome, Italy: Fratelli Scalera
!!!END: 1992//
!!!EED: John Miller
!!!YEC: Copyright 2000, John Miller
!!!YEN: United States of America
!!!YEM: Rights to all derivative electronic formats reserved.
!!!YEM: Refer to licensing agreement for further details.
!!!YEM: This file must be accompanied by the licensing agreement.
!!!YEM: A copy of the licensing agreement may be found at http://www.music-cog.ohio-state.edu/HumdrumDatabases/Palestrina/license.txt
!!!EMD: converted to Humdrum by Bret Aarden
